materials/rfire.cube
TITLE "ACT to LUT"
LUT_3D_SIZE 9
0.000000 0.000000 0.000000
0.000000 0.000000 0.109804
0.003922 0.094118 0.192157
0.007843 0.000000 0.498039
0.007843 0.000000 0.498039
0.000000 0.007843 0.564706
0.000000 0.000000 0.796078
0.047059 0.000000 0.905882
0.000000 0.000000 1.000000
0.086275 0.137255 0.047059
0.003922 0.094118 0.192157
0.003922 0.094118 0.192157
0.031373 0.227451 0.419608
0.007843 0.000000 0.498039
0.058824 0.113725 0.666667
0.058824 0.113725 0.666667
0.047059 0.000000 0.905882
0.000000 0.000000 1.000000
0.086275 0.137255 0.047059
0.125490 0.196078 0.062745
0.109804 0.294118 0.211765
0.031373 0.227451 0.419608
0.031373 0.227451 0.419608
0.015686 0.380392 0.596078
0.133333 0.250980 0.776471
0.133333 0.250980 0.776471
0.000000 0.000000 1.000000
0.160784 0.250980 0.070588
0.109804 0.294118 0.211765
0.125490 0.352941 0.247059
0.031373 0.227451 0.419608
0.070588 0.305882 0.513725
0.015686 0.380392 0.596078
0.050980 0.423529 0.647059
0.007843 0.498039 1.000000
0.007843 0.498039 1.000000
0.188235 0.533333 0.031373
0.188235 0.533333 0.031373
0.141176 0.407843 0.282353
0.160784 0.521569 0.356863
0.141176 0.466667 0.537255
0.050980 0.423529 0.647059
0.094118 0.474510 0.698039
0.007843 0.498039 1.000000
0.007843 0.498039 1.000000
0.188235 0.533333 0.031373
0.188235 0.533333 0.031373
0.160784 0.521569 0.356863
0.168627 0.576471 0.388235
0.176471 0.635294 0.423529
0.156863 0.541176 0.631373
0.141176 0.517647 0.749020
0.007843 0.498039 1.000000
0.007843 0.498039 1.000000
0.270588 0.705882 0.000000
0.239216 0.600000 0.054902
0.176471 0.635294 0.423529
0.176471 0.635294 0.423529
0.176471 0.635294 0.423529
0.156863 0.541176 0.631373
0.141176 0.517647 0.749020
0.035294 0.968627 1.000000
0.035294 0.968627 1.000000
0.270588 0.705882 0.000000
0.270588 0.705882 0.000000
0.176471 0.635294 0.423529
0.176471 0.635294 0.423529
0.176471 0.635294 0.423529
0.176471 0.635294 0.423529
0.035294 0.968627 1.000000
0.035294 0.968627 1.000000
0.035294 0.968627 1.000000
0.270588 0.705882 0.000000
0.376471 0.882353 0.164706
0.376471 0.882353 0.164706
0.176471 0.635294 0.423529
0.176471 0.635294 0.423529
0.035294 0.968627 1.000000
0.035294 0.968627 1.000000
0.035294 0.968627 1.000000
0.035294 0.968627 1.000000
0.000000 0.000000 0.000000
0.000000 0.000000 0.109804
0.090196 0.101961 0.207843
0.007843 0.000000 0.498039
0.007843 0.000000 0.498039
0.000000 0.007843 0.564706
0.000000 0.000000 0.796078
0.047059 0.000000 0.905882
0.035294 0.000000 0.968627
0.086275 0.137255 0.047059
0.125490 0.125490 0.125490
0.125490 0.141176 0.258824
0.168627 0.188235 0.313725
0.031373 0.227451 0.419608
0.058824 0.113725 0.666667
0.058824 0.113725 0.666667
0.047059 0.000000 0.905882
0.035294 0.000000 0.968627
0.160784 0.250980 0.070588
0.160784 0.250980 0.070588
0.109804 0.294118 0.211765
0.215686 0.235294 0.364706
0.070588 0.305882 0.513725
0.070588 0.305882 0.513725
0.133333 0.250980 0.776471
0.133333 0.250980 0.776471
0.227451 0.396078 0.886275
0.196078 0.305882 0.074510
0.196078 0.305882 0.074510
0.125490 0.352941 0.247059
0.141176 0.407843 0.282353
0.070588 0.305882 0.513725
0.121569 0.392157 0.607843
0.094118 0.474510 0.698039
0.227451 0.396078 0.886275
0.227451 0.396078 0.886275
0.188235 0.533333 0.031373
0.188235 0.533333 0.031373
0.152941 0.466667 0.317647
0.160784 0.521569 0.356863
0.141176 0.466667 0.537255
0.149020 0.501961 0.584314
0.141176 0.517647 0.749020
0.192157 0.556863 0.800000
0.007843 0.498039 1.000000
0.188235 0.533333 0.031373
0.239216 0.600000 0.054902
0.160784 0.521569 0.356863
0.168627 0.576471 0.388235
0.176471 0.635294 0.423529
0.156863 0.541176 0.631373
0.141176 0.517647 0.749020
0.192157 0.556863 0.800000
0.007843 0.498039 1.000000
0.270588 0.705882 0.000000
0.294118 0.666667 0.082353
0.176471 0.635294 0.423529
0.176471 0.635294 0.423529
0.176471 0.635294 0.423529
0.188235 0.564706 0.650980
0.266667 0.627451 0.713725
0.247059 0.607843 0.850980
0.313725 0.666667 0.901961
0.270588 0.705882 0.000000
0.270588 0.705882 0.000000
0.376471 0.882353 0.164706
0.176471 0.635294 0.423529
0.176471 0.635294 0.423529
0.266667 0.627451 0.713725
0.125490 0.988235 0.988235
0.125490 0.988235 0.988235
0.125490 0.988235 0.988235
0.376471 0.882353 0.164706
0.376471 0.882353 0.164706
0.376471 0.882353 0.164706
0.376471 0.882353 0.164706
0.176471 0.635294 0.423529
0.125490 0.988235 0.988235
0.125490 0.988235 0.988235
0.125490 0.988235 0.988235
0.125490 0.988235 0.988235
0.313725 0.000000 0.000000
0.313725 0.000000 0.000000
0.125490 0.141176 0.258824
0.258824 0.000000 0.564706
0.258824 0.000000 0.564706
0.258824 0.000000 0.564706
0.258824 0.000000 0.564706
0.047059 0.000000 0.905882
0.035294 0.000000 0.968627
0.274510 0.121569 0.054902
0.262745 0.180392 0.094118
0.192157 0.192157 0.192157
0.215686 0.235294 0.364706
0.258824 0.000000 0.564706
0.258824 0.000000 0.564706
0.133333 0.250980 0.776471
0.133333 0.250980 0.776471
0.035294 0.000000 0.968627
0.196078 0.305882 0.074510
0.301961 0.211765 0.105882
0.254902 0.254902 0.254902
0.215686 0.235294 0.364706
0.266667 0.286275 0.415686
0.227451 0.415686 0.635294
0.133333 0.250980 0.776471
0.133333 0.250980 0.776471
0.227451 0.396078 0.886275
0.231373 0.364706 0.070588
0.231373 0.364706 0.070588
0.294118 0.364706 0.188235
0.266667 0.286275 0.415686
0.325490 0.376471 0.490196
0.227451 0.415686 0.635294
0.254902 0.462745 0.678431
0.227451 0.396078 0.886275
0.227451 0.396078 0.886275
0.188235 0.533333 0.031373
0.301961 0.474510 0.058824
0.345098 0.431373 0.223529
0.160784 0.521569 0.356863
0.305882 0.494118 0.541176
0.254902 0.462745 0.678431
0.278431 0.498039 0.725490
0.227451 0.396078 0.886275
0.345098 0.568627 1.000000
0.239216 0.600000 0.054902
0.239216 0.600000 0.054902
0.168627 0.576471 0.388235
0.176471 0.635294 0.423529
0.176471 0.635294 0.423529
0.231373 0.596078 0.694118
0.266667 0.627451 0.713725
0.247059 0.607843 0.850980
0.345098 0.568627 1.000000
0.270588 0.705882 0.000000
0.294118 0.666667 0.082353
0.352941 0.733333 0.113725
0.176471 0.635294 0.423529
0.176471 0.635294 0.423529
0.341176 0.658824 0.701961
0.266667 0.627451 0.713725
0.341176 0.701961 0.898039
0.376471 0.725490 0.960784
0.270588 0.705882 0.000000
0.376471 0.882353 0.164706
0.376471 0.882353 0.164706
0.376471 0.882353 0.164706
0.176471 0.635294 0.423529
0.376471 0.686275 0.694118
0.400000 0.709804 0.717647
0.250980 0.988235 0.988235
0.250980 0.988235 0.988235
0.376471 0.882353 0.164706
0.376471 0.882353 0.164706
0.376471 0.882353 0.164706
0.494118 1.000000 0.368627
0.494118 1.000000 0.368627
0.400000 0.709804 0.717647
0.250980 0.988235 0.988235
0.250980 0.988235 0.988235
0.250980 0.988235 0.988235
0.313725 0.000000 0.000000
0.313725 0.000000 0.000000
0.498039 0.082353 0.082353
0.258824 0.000000 0.564706
0.258824 0.000000 0.564706
0.258824 0.000000 0.564706
0.258824 0.000000 0.564706
0.047059 0.000000 0.905882
0.035294 0.000000 0.968627
0.325490 0.145098 0.074510
0.376471 0.184314 0.098039
0.376471 0.184314 0.098039
0.364706 0.301961 0.301961
0.258824 0.000000 0.564706
0.439216 0.282353 0.627451
0.439216 0.282353 0.627451
0.133333 0.250980 0.776471
0.227451 0.396078 0.886275
0.345098 0.329412 0.000000
0.380392 0.266667 0.121569
0.407843 0.286275 0.235294
0.364706 0.301961 0.301961
0.325490 0.349020 0.470588
0.439216 0.282353 0.627451
0.439216 0.282353 0.627451
0.227451 0.396078 0.886275
0.227451 0.396078 0.886275
0.345098 0.329412 0.000000
0.352941 0.364706 0.145098
0.333333 0.388235 0.231373
0.384314 0.384314 0.384314
0.388235 0.407843 0.517647
0.364706 0.431373 0.560784
0.403922 0.482353 0.803922
0.403922 0.482353 0.803922
0.227451 0.396078 0.886275
0.345098 0.525490 0.043137
0.345098 0.525490 0.043137
0.345098 0.431373 0.223529
0.447059 0.541176 0.298039
0.305882 0.494118 0.541176
0.403922 0.490196 0.635294
0.403922 0.482353 0.803922
0.403922 0.482353 0.803922
0.345098 0.568627 1.000000
0.384314 0.584314 0.023529
0.294118 0.666667 0.082353
0.447059 0.541176 0.298039
0.447059 0.541176 0.298039
0.349020 0.560784 0.619608
0.349020 0.560784 0.619608
0.396078 0.635294 0.705882
0.372549 0.650980 0.878431
0.345098 0.568627 1.000000
0.454902 0.705882 0.000000
0.352941 0.733333 0.113725
0.400000 0.796078 0.149020
0.400000 0.796078 0.149020
0.427451 0.666667 0.678431
0.376471 0.686275 0.694118
0.400000 0.709804 0.717647
0.341176 0.701961 0.898039
0.376471 0.725490 0.960784
0.376471 0.882353 0.164706
0.376471 0.882353 0.164706
0.376471 0.882353 0.164706
0.494118 1.000000 0.368627
0.494118 1.000000 0.368627
0.400000 0.709804 0.717647
0.435294 0.741176 0.749020
0.439216 0.815686 1.000000
0.439216 0.815686 1.000000
0.376471 0.882353 0.164706
0.376471 0.882353 0.164706
0.376471 0.882353 0.164706
0.494118 1.000000 0.368627
0.494118 1.000000 0.368627
0.494118 1.000000 0.368627
0.360784 0.988235 0.988235
0.360784 0.988235 0.988235
0.360784 0.988235 0.988235
0.533333 0.000000 0.000000
0.498039 0.082353 0.082353
0.498039 0.082353 0.082353
0.533333 0.180392 0.180392
0.258824 0.000000 0.564706
0.258824 0.000000 0.564706
0.752941 0.000000 0.725490
0.752941 0.000000 0.725490
0.752941 0.000000 0.725490
0.498039 0.082353 0.082353
0.498039 0.082353 0.082353
0.533333 0.180392 0.180392
0.501961 0.250980 0.250980
0.439216 0.282353 0.627451
0.439216 0.282353 0.627451
0.439216 0.282353 0.627451
0.482353 0.349020 0.690196
0.482353 0.349020 0.690196
0.427451 0.215686 0.125490
0.482353 0.262745 0.156863
0.501961 0.250980 0.250980
0.431373 0.286275 0.286275
0.439216 0.282353 0.627451
0.439216 0.282353 0.627451
0.482353 0.349020 0.690196
0.482353 0.349020 0.690196
0.529412 0.423529 0.749020
0.439216 0.423529 0.000000
0.501961 0.356863 0.149020
0.466667 0.368627 0.266667
0.533333 0.396078 0.286275
0.450980 0.450980 0.450980
0.482353 0.349020 0.690196
0.529412 0.423529 0.749020
0.529412 0.423529 0.749020
0.592157 0.505882 0.819608
0.517647 0.517647 0.000000
0.478431 0.513725 0.203922
0.478431 0.513725 0.203922
0.552941 0.447059 0.317647
0.509804 0.509804 0.509804
0.525490 0.545098 0.623529
0.443137 0.537255 0.709804
0.592157 0.505882 0.819608
0.345098 0.568627 1.000000
0.423529 0.639216 0.000000
0.501961 0.631373 0.192157
0.501961 0.631373 0.192157
0.447059 0.541176 0.298039
0.509804 0.509804 0.509804
0.525490 0.545098 0.623529
0.478431 0.600000 0.792157
0.478431 0.600000 0.792157
0.403922 0.690196 0.925490
0.454902 0.705882 0.000000
0.549020 0.686275 0.172549
0.549020 0.686275 0.172549
0.501961 0.631373 0.192157
0.568627 0.678431 0.615686
0.568627 0.678431 0.615686
0.505882 0.772549 0.780392
0.505882 0.772549 0.780392
0.439216 0.749020 0.976471
0.454902 0.705882 0.000000
0.466667 0.862745 0.188235
0.529412 0.929412 0.231373
0.494118 1.000000 0.368627
0.494118 1.000000 0.368627
0.505882 0.772549 0.780392
0.505882 0.772549 0.780392
0.505882 0.772549 0.780392
0.439216 0.815686 1.000000
0.466667 0.862745 0.188235
0.529412 0.929412 0.231373
0.529412 0.929412 0.231373
0.494118 1.000000 0.368627
0.494118 1.000000 0.368627
0.494118 1.000000 0.368627
0.486275 0.988235 0.972549
0.486275 0.988235 0.972549
0.486275 0.988235 0.972549
0.643137 0.000000 0.000000
0.643137 0.000000 0.000000
0.533333 0.180392 0.180392
0.533333 0.180392 0.180392
0.752941 0.000000 0.725490
0.752941 0.000000 0.725490
0.752941 0.000000 0.725490
0.752941 0.000000 0.725490
0.752941 0.000000 0.725490
0.643137 0.000000 0.000000
0.533333 0.180392 0.180392
0.533333 0.180392 0.180392
0.501961 0.250980 0.250980
0.439216 0.282353 0.627451
0.752941 0.000000 0.725490
0.752941 0.000000 0.725490
0.752941 0.000000 0.725490
0.752941 0.000000 0.725490
0.482353 0.262745 0.156863
0.533333 0.180392 0.180392
0.580392 0.352941 0.223529
0.501961 0.250980 0.250980
0.439216 0.282353 0.627451
0.482353 0.349020 0.690196
0.482353 0.349020 0.690196
0.529412 0.423529 0.749020
0.592157 0.505882 0.819608
0.545098 0.396078 0.152941
0.545098 0.396078 0.152941
0.580392 0.352941 0.223529
0.631373 0.458824 0.329412
0.509804 0.509804 0.509804
0.482353 0.349020 0.690196
0.529412 0.423529 0.749020
0.592157 0.505882 0.819608
0.592157 0.505882 0.819608
0.635294 0.576471 0.000000
0.545098 0.396078 0.152941
0.615686 0.466667 0.266667
0.650980 0.513725 0.352941
0.509804 0.509804 0.509804
0.576471 0.576471 0.576471
0.592157 0.505882 0.819608
0.592157 0.505882 0.819608
0.592157 0.505882 0.819608
0.611765 0.611765 0.000000
0.549020 0.686275 0.172549
0.549020 0.686275 0.172549
0.682353 0.541176 0.380392
0.576471 0.576471 0.576471
0.639216 0.639216 0.639216
0.611765 0.623529 0.682353
0.592157 0.505882 0.819608
0.592157 0.505882 0.819608
0.705882 0.674510 0.000000
0.603922 0.749020 0.149020
0.603922 0.749020 0.149020
0.741176 0.603922 0.431373
0.647059 0.694118 0.600000
0.647059 0.694118 0.600000
0.705882 0.705882 0.705882
0.505882 0.772549 0.780392
0.439216 0.749020 0.976471
0.603922 0.749020 0.149020
0.603922 0.749020 0.149020
0.529412 0.929412 0.231373
0.529412 0.929412 0.231373
0.690196 0.741176 0.639216
0.690196 0.741176 0.639216
0.741176 0.796078 0.682353
0.611765 0.988235 0.988235
0.611765 0.988235 0.988235
0.584314 1.000000 0.243137
0.584314 1.000000 0.243137
0.584314 1.000000 0.243137
0.494118 1.000000 0.368627
0.494118 1.000000 0.368627
0.741176 0.796078 0.682353
0.611765 0.988235 0.988235
0.611765 0.988235 0.988235
0.611765 0.988235 0.988235
0.733333 0.000000 0.000000
0.733333 0.000000 0.000000
0.733333 0.000000 0.000000
0.945098 0.000000 0.407843
0.945098 0.000000 0.407843
0.752941 0.000000 0.725490
0.752941 0.000000 0.725490
0.752941 0.000000 0.725490
0.752941 0.000000 0.725490
0.733333 0.000000 0.000000
0.733333 0.000000 0.000000
0.941176 0.160784 0.160784
0.945098 0.000000 0.407843
0.945098 0.000000 0.407843
0.752941 0.000000 0.725490
0.752941 0.000000 0.725490
0.752941 0.000000 0.725490
0.752941 0.000000 0.725490
0.992157 0.278431 0.000000
0.941176 0.160784 0.160784
0.666667 0.419608 0.266667
0.666667 0.419608 0.266667
0.956863 0.329412 0.329412
0.752941 0.000000 0.725490
0.752941 0.000000 0.725490
0.752941 0.000000 0.725490
0.592157 0.505882 0.819608
0.635294 0.576471 0.000000
0.666667 0.419608 0.266667
0.666667 0.419608 0.266667
0.666667 0.419608 0.266667
0.737255 0.541176 0.372549
0.529412 0.423529 0.749020
0.592157 0.505882 0.819608
0.592157 0.505882 0.819608
0.592157 0.505882 0.819608
0.635294 0.576471 0.000000
0.635294 0.576471 0.000000
0.709804 0.521569 0.341176
0.737255 0.541176 0.372549
0.768627 0.592157 0.419608
0.639216 0.639216 0.639216
0.592157 0.505882 0.819608
0.592157 0.505882 0.819608
0.592157 0.505882 0.819608
0.705882 0.674510 0.000000
0.705882 0.674510 0.000000
0.709804 0.521569 0.341176
0.768627 0.592157 0.419608
0.772549 0.635294 0.458824
0.639216 0.639216 0.639216
0.705882 0.705882 0.705882
0.705882 0.705882 0.705882
0.592157 0.505882 0.819608
0.815686 0.760784 0.000000
0.815686 0.760784 0.000000
0.603922 0.749020 0.149020
0.772549 0.635294 0.458824
0.839216 0.682353 0.501961
0.690196 0.741176 0.639216
0.705882 0.705882 0.705882
0.796078 0.796078 0.796078
0.796078 0.796078 0.796078
0.815686 0.760784 0.000000
0.815686 0.760784 0.000000
0.584314 1.000000 0.243137
0.584314 1.000000 0.243137
0.741176 0.796078 0.682353
0.741176 0.796078 0.682353
0.796078 0.796078 0.796078
0.796078 0.796078 0.796078
0.721569 0.988235 0.988235
0.815686 0.760784 0.000000
0.584314 1.000000 0.243137
0.584314 1.000000 0.243137
0.584314 1.000000 0.243137
1.000000 0.941176 0.552941
0.741176 0.796078 0.682353
0.796078 0.796078 0.796078
0.721569 0.988235 0.988235
0.721569 0.988235 0.988235
0.827451 0.000000 0.000000
0.827451 0.000000 0.000000
0.945098 0.000000 0.407843
0.945098 0.000000 0.407843
0.945098 0.000000 0.407843
0.752941 0.000000 0.725490
0.752941 0.000000 0.725490
0.752941 0.000000 0.725490
0.752941 0.000000 0.725490
0.827451 0.000000 0.000000
0.941176 0.160784 0.160784
0.941176 0.160784 0.160784
0.945098 0.000000 0.407843
0.945098 0.000000 0.407843
0.752941 0.000000 0.725490
0.752941 0.000000 0.725490
0.752941 0.000000 0.725490
0.752941 0.000000 0.725490
0.992157 0.278431 0.000000
0.941176 0.160784 0.160784
0.941176 0.160784 0.160784
0.956863 0.329412 0.329412
0.956863 0.329412 0.329412
0.752941 0.000000 0.725490
0.752941 0.000000 0.725490
0.752941 0.000000 0.725490
0.752941 0.000000 0.725490
0.992157 0.349020 0.000000
0.992157 0.349020 0.000000
0.956863 0.329412 0.329412
0.956863 0.329412 0.329412
0.968627 0.494118 0.494118
0.968627 0.494118 0.494118
0.968627 0.494118 0.494118
0.592157 0.505882 0.819608
0.592157 0.505882 0.819608
0.988235 0.505882 0.000000
0.988235 0.505882 0.000000
0.737255 0.541176 0.372549
0.784314 0.584314 0.411765
0.968627 0.494118 0.494118
0.968627 0.494118 0.494118
0.984314 0.670588 0.670588
0.592157 0.505882 0.819608
0.592157 0.505882 0.819608
0.984314 0.643137 0.000000
0.984314 0.643137 0.000000
0.784314 0.584314 0.411765
0.784314 0.584314 0.411765
0.847059 0.639216 0.474510
0.882353 0.682353 0.549020
0.984314 0.670588 0.670588
0.796078 0.796078 0.796078
0.796078 0.796078 0.796078
0.815686 0.760784 0.000000
0.815686 0.760784 0.000000
1.000000 0.921569 0.278431
0.839216 0.682353 0.501961
0.901961 0.733333 0.533333
0.901961 0.733333 0.533333
0.913725 0.780392 0.717647
0.796078 0.796078 0.796078
0.870588 0.870588 0.870588
1.000000 0.898039 0.000000
1.000000 0.898039 0.000000
1.000000 0.921569 0.278431
1.000000 0.976471 0.380392
0.901961 0.733333 0.533333
0.913725 0.780392 0.717647
0.941176 0.819608 0.764706
0.870588 0.870588 0.870588
0.854902 1.000000 1.000000
1.000000 0.960784 0.000000
1.000000 0.960784 0.000000
1.000000 0.921569 0.278431
1.000000 0.976471 0.380392
1.000000 0.941176 0.552941
1.000000 0.941176 0.552941
1.000000 0.988235 0.756863
0.854902 1.000000 1.000000
0.854902 1.000000 1.000000
0.929412 0.000000 0.000000
0.929412 0.000000 0.000000
0.945098 0.000000 0.407843
0.945098 0.000000 0.407843
0.945098 0.000000 0.407843
0.945098 0.000000 0.407843
0.752941 0.000000 0.725490
0.752941 0.000000 0.725490
0.752941 0.000000 0.725490
1.000000 0.211765 0.000000
0.941176 0.160784 0.160784
0.941176 0.160784 0.160784
0.945098 0.000000 0.407843
0.945098 0.000000 0.407843
0.945098 0.000000 0.407843
0.752941 0.000000 0.725490
0.752941 0.000000 0.725490
0.752941 0.000000 0.725490
0.992157 0.278431 0.000000
0.941176 0.160784 0.160784
0.956863 0.329412 0.329412
0.956863 0.329412 0.329412
0.956863 0.329412 0.329412
0.968627 0.494118 0.494118
0.752941 0.000000 0.725490
0.752941 0.000000 0.725490
0.752941 0.000000 0.725490
0.992157 0.349020 0.000000
0.992157 0.349020 0.000000
0.956863 0.329412 0.329412
0.956863 0.329412 0.329412
0.968627 0.494118 0.494118
0.968627 0.494118 0.494118
0.968627 0.494118 0.494118
0.984314 0.670588 0.670588
0.984314 0.670588 0.670588
0.988235 0.505882 0.000000
0.988235 0.505882 0.000000
0.956863 0.329412 0.329412
0.968627 0.494118 0.494118
0.968627 0.494118 0.494118
0.968627 0.494118 0.494118
0.984314 0.670588 0.670588
0.984314 0.670588 0.670588
0.984314 0.670588 0.670588
0.984314 0.643137 0.000000
0.984314 0.643137 0.000000
0.984314 0.643137 0.000000
0.968627 0.494118 0.494118
0.921569 0.705882 0.545098
0.984314 0.670588 0.670588
0.984314 0.670588 0.670588
0.984314 0.670588 0.670588
1.000000 0.854902 0.854902
0.988235 0.737255 0.000000
0.988235 0.737255 0.000000
1.000000 0.921569 0.278431
0.901961 0.733333 0.533333
0.960784 0.729412 0.584314
0.960784 0.729412 0.584314
0.941176 0.772549 0.694118
1.000000 0.854902 0.854902
1.000000 0.854902 0.854902
1.000000 0.898039 0.000000
1.000000 0.898039 0.000000
1.000000 0.921569 0.278431
1.000000 0.976471 0.380392
1.000000 0.941176 0.552941
1.000000 0.941176 0.552941
0.964706 0.862745 0.772549
1.000000 0.854902 0.854902
1.000000 1.000000 1.000000
1.000000 0.960784 0.000000
1.000000 0.960784 0.000000
1.000000 0.921569 0.278431
1.000000 0.976471 0.380392
1.000000 0.941176 0.552941
1.000000 0.941176 0.552941
1.000000 0.988235 0.756863
1.000000 0.913725 0.870588
1.000000 1.000000 1.000000
