materials/rfire.cube
TITLE "ACT to LUT"
LUT_3D_SIZE 17
0.000000 0.000000 0.000000
0.000000 0.000000 0.062745
0.000000 0.000000 0.109804
0.000000 0.000000 0.109804
0.003922 0.094118 0.192157
0.003922 0.094118 0.192157
0.007843 0.000000 0.498039
0.007843 0.000000 0.498039
0.007843 0.000000 0.498039
0.000000 0.007843 0.564706
0.000000 0.007843 0.564706
0.000000 0.000000 0.796078
0.000000 0.000000 0.796078
0.000000 0.000000 0.796078
0.047059 0.000000 0.905882
0.035294 0.000000 0.968627
0.000000 0.000000 1.000000
0.000000 0.000000 0.000000
0.000000 0.000000 0.062745
0.000000 0.000000 0.109804
0.003922 0.094118 0.192157
0.003922 0.094118 0.192157
0.003922 0.094118 0.192157
0.007843 0.000000 0.498039
0.007843 0.000000 0.498039
0.007843 0.000000 0.498039
0.000000 0.007843 0.564706
0.000000 0.007843 0.564706
0.058824 0.113725 0.666667
0.000000 0.000000 0.796078
0.000000 0.000000 0.796078
0.047059 0.000000 0.905882
0.035294 0.000000 0.968627
0.000000 0.000000 1.000000
0.086275 0.137255 0.047059
0.086275 0.137255 0.047059
0.003922 0.094118 0.192157
0.003922 0.094118 0.192157
0.003922 0.094118 0.192157
0.003922 0.094118 0.192157
0.031373 0.227451 0.419608
0.031373 0.227451 0.419608
0.007843 0.000000 0.498039
0.000000 0.007843 0.564706
0.058824 0.113725 0.666667
0.058824 0.113725 0.666667
0.058824 0.113725 0.666667
0.000000 0.000000 0.796078
0.047059 0.000000 0.905882
0.035294 0.000000 0.968627
0.000000 0.000000 1.000000
0.086275 0.137255 0.047059
0.086275 0.137255 0.047059
0.003922 0.094118 0.192157
0.003922 0.094118 0.192157
0.003922 0.094118 0.192157
0.031373 0.227451 0.419608
0.031373 0.227451 0.419608
0.031373 0.227451 0.419608
0.031373 0.227451 0.419608
0.058824 0.113725 0.666667
0.058824 0.113725 0.666667
0.058824 0.113725 0.666667
0.058824 0.113725 0.666667
0.133333 0.250980 0.776471
0.133333 0.250980 0.776471
0.035294 0.000000 0.968627
0.000000 0.000000 1.000000
0.086275 0.137255 0.047059
0.125490 0.196078 0.062745
0.125490 0.196078 0.062745
0.109804 0.294118 0.211765
0.109804 0.294118 0.211765
0.031373 0.227451 0.419608
0.031373 0.227451 0.419608
0.031373 0.227451 0.419608
0.031373 0.227451 0.419608
0.070588 0.305882 0.513725
0.015686 0.380392 0.596078
0.058824 0.113725 0.666667
0.133333 0.250980 0.776471
0.133333 0.250980 0.776471
0.133333 0.250980 0.776471
0.133333 0.250980 0.776471
0.000000 0.000000 1.000000
0.125490 0.196078 0.062745
0.125490 0.196078 0.062745
0.109804 0.294118 0.211765
0.109804 0.294118 0.211765
0.109804 0.294118 0.211765
0.031373 0.227451 0.419608
0.031373 0.227451 0.419608
0.031373 0.227451 0.419608
0.070588 0.305882 0.513725
0.015686 0.380392 0.596078
0.015686 0.380392 0.596078
0.015686 0.380392 0.596078
0.133333 0.250980 0.776471
0.133333 0.250980 0.776471
0.133333 0.250980 0.776471
0.007843 0.498039 1.000000
0.007843 0.498039 1.000000
0.160784 0.250980 0.070588
0.160784 0.250980 0.070588
0.109804 0.294118 0.211765
0.109804 0.294118 0.211765
0.125490 0.352941 0.247059
0.125490 0.352941 0.247059
0.031373 0.227451 0.419608
0.070588 0.305882 0.513725
0.070588 0.305882 0.513725
0.015686 0.380392 0.596078
0.015686 0.380392 0.596078
0.050980 0.423529 0.647059
0.050980 0.423529 0.647059
0.094118 0.474510 0.698039
0.007843 0.498039 1.000000
0.007843 0.498039 1.000000
0.007843 0.498039 1.000000
0.188235 0.533333 0.031373
0.188235 0.533333 0.031373
0.125490 0.352941 0.247059
0.125490 0.352941 0.247059
0.141176 0.407843 0.282353
0.141176 0.407843 0.282353
0.152941 0.466667 0.317647
0.070588 0.305882 0.513725
0.015686 0.380392 0.596078
0.015686 0.380392 0.596078
0.050980 0.423529 0.647059
0.050980 0.423529 0.647059
0.094118 0.474510 0.698039
0.094118 0.474510 0.698039
0.007843 0.498039 1.000000
0.007843 0.498039 1.000000
0.007843 0.498039 1.000000
0.188235 0.533333 0.031373
0.188235 0.533333 0.031373
0.188235 0.533333 0.031373
0.141176 0.407843 0.282353
0.141176 0.407843 0.282353
0.152941 0.466667 0.317647
0.160784 0.521569 0.356863
0.141176 0.466667 0.537255
0.141176 0.466667 0.537255
0.015686 0.380392 0.596078
0.050980 0.423529 0.647059
0.094118 0.474510 0.698039
0.094118 0.474510 0.698039
0.094118 0.474510 0.698039
0.007843 0.498039 1.000000
0.007843 0.498039 1.000000
0.007843 0.498039 1.000000
0.188235 0.533333 0.031373
0.188235 0.533333 0.031373
0.188235 0.533333 0.031373
0.152941 0.466667 0.317647
0.152941 0.466667 0.317647
0.160784 0.521569 0.356863
0.160784 0.521569 0.356863
0.168627 0.576471 0.388235
0.141176 0.466667 0.537255
0.149020 0.501961 0.584314
0.094118 0.474510 0.698039
0.094118 0.474510 0.698039
0.094118 0.474510 0.698039
0.141176 0.517647 0.749020
0.007843 0.498039 1.000000
0.007843 0.498039 1.000000
0.007843 0.498039 1.000000
0.188235 0.533333 0.031373
0.188235 0.533333 0.031373
0.188235 0.533333 0.031373
0.152941 0.466667 0.317647
0.160784 0.521569 0.356863
0.168627 0.576471 0.388235
0.168627 0.576471 0.388235
0.176471 0.635294 0.423529
0.176471 0.635294 0.423529
0.156863 0.541176 0.631373
0.156863 0.541176 0.631373
0.094118 0.474510 0.698039
0.141176 0.517647 0.749020
0.141176 0.517647 0.749020
0.007843 0.498039 1.000000
0.007843 0.498039 1.000000
0.007843 0.498039 1.000000
0.188235 0.533333 0.031373
0.188235 0.533333 0.031373
0.188235 0.533333 0.031373
0.239216 0.600000 0.054902
0.168627 0.576471 0.388235
0.168627 0.576471 0.388235
0.176471 0.635294 0.423529
0.176471 0.635294 0.423529
0.176471 0.635294 0.423529
0.156863 0.541176 0.631373
0.156863 0.541176 0.631373
0.156863 0.541176 0.631373
0.141176 0.517647 0.749020
0.141176 0.517647 0.749020
0.007843 0.498039 1.000000
0.007843 0.498039 1.000000
0.007843 0.498039 1.000000
0.270588 0.705882 0.000000
0.270588 0.705882 0.000000
0.239216 0.600000 0.054902
0.239216 0.600000 0.054902
0.176471 0.635294 0.423529
0.176471 0.635294 0.423529
0.176471 0.635294 0.423529
0.176471 0.635294 0.423529
0.176471 0.635294 0.423529
0.176471 0.635294 0.423529
0.156863 0.541176 0.631373
0.188235 0.564706 0.650980
0.141176 0.517647 0.749020
0.192157 0.556863 0.800000
0.035294 0.968627 1.000000
0.035294 0.968627 1.000000
0.035294 0.968627 1.000000
0.270588 0.705882 0.000000
0.270588 0.705882 0.000000
0.270588 0.705882 0.000000
0.294118 0.666667 0.082353
0.176471 0.635294 0.423529
0.176471 0.635294 0.423529
0.176471 0.635294 0.423529
0.176471 0.635294 0.423529
0.176471 0.635294 0.423529
0.176471 0.635294 0.423529
0.188235 0.564706 0.650980
0.188235 0.564706 0.650980
0.035294 0.968627 1.000000
0.035294 0.968627 1.000000
0.035294 0.968627 1.000000
0.035294 0.968627 1.000000
0.035294 0.968627 1.000000
0.270588 0.705882 0.000000
0.270588 0.705882 0.000000
0.270588 0.705882 0.000000
0.270588 0.705882 0.000000
0.176471 0.635294 0.423529
0.176471 0.635294 0.423529
0.176471 0.635294 0.423529
0.176471 0.635294 0.423529
0.176471 0.635294 0.423529
0.176471 0.635294 0.423529
0.176471 0.635294 0.423529
0.035294 0.968627 1.000000
0.035294 0.968627 1.000000
0.035294 0.968627 1.000000
0.035294 0.968627 1.000000
0.035294 0.968627 1.000000
0.035294 0.968627 1.000000
0.270588 0.705882 0.000000
0.270588 0.705882 0.000000
0.270588 0.705882 0.000000
0.376471 0.882353 0.164706
0.376471 0.882353 0.164706
0.176471 0.635294 0.423529
0.176471 0.635294 0.423529
0.176471 0.635294 0.423529
0.176471 0.635294 0.423529
0.176471 0.635294 0.423529
0.035294 0.968627 1.000000
0.035294 0.968627 1.000000
0.035294 0.968627 1.000000
0.035294 0.968627 1.000000
0.035294 0.968627 1.000000
0.035294 0.968627 1.000000
0.035294 0.968627 1.000000
0.270588 0.705882 0.000000
0.270588 0.705882 0.000000
0.376471 0.882353 0.164706
0.376471 0.882353 0.164706
0.376471 0.882353 0.164706
0.376471 0.882353 0.164706
0.176471 0.635294 0.423529
0.176471 0.635294 0.423529
0.176471 0.635294 0.423529
0.176471 0.635294 0.423529
0.035294 0.968627 1.000000
0.035294 0.968627 1.000000
0.035294 0.968627 1.000000
0.035294 0.968627 1.000000
0.035294 0.968627 1.000000
0.035294 0.968627 1.000000
0.035294 0.968627 1.000000
0.000000 0.000000 0.000000
0.000000 0.000000 0.062745
0.000000 0.000000 0.109804
0.000000 0.000000 0.109804
0.090196 0.101961 0.207843
0.090196 0.101961 0.207843
0.007843 0.000000 0.498039
0.007843 0.000000 0.498039
0.007843 0.000000 0.498039
0.000000 0.007843 0.564706
0.000000 0.007843 0.564706
0.058824 0.113725 0.666667
0.000000 0.000000 0.796078
0.000000 0.000000 0.796078
0.047059 0.000000 0.905882
0.047059 0.000000 0.905882
0.035294 0.000000 0.968627
0.000000 0.000000 0.000000
0.000000 0.000000 0.062745
0.000000 0.000000 0.109804
0.090196 0.101961 0.207843
0.090196 0.101961 0.207843
0.090196 0.101961 0.207843
0.007843 0.000000 0.498039
0.007843 0.000000 0.498039
0.007843 0.000000 0.498039
0.000000 0.007843 0.564706
0.058824 0.113725 0.666667
0.058824 0.113725 0.666667
0.000000 0.000000 0.796078
0.000000 0.000000 0.796078
0.047059 0.000000 0.905882
0.047059 0.000000 0.905882
0.035294 0.000000 0.968627
0.086275 0.137255 0.047059
0.086275 0.137255 0.047059
0.125490 0.125490 0.125490
0.090196 0.101961 0.207843
0.090196 0.101961 0.207843
0.125490 0.141176 0.258824
0.031373 0.227451 0.419608
0.031373 0.227451 0.419608
0.007843 0.000000 0.498039
0.058824 0.113725 0.666667
0.058824 0.113725 0.666667
0.058824 0.113725 0.666667
0.058824 0.113725 0.666667
0.000000 0.000000 0.796078
0.047059 0.000000 0.905882
0.047059 0.000000 0.905882
0.035294 0.000000 0.968627
0.086275 0.137255 0.047059
0.086275 0.137255 0.047059
0.125490 0.125490 0.125490
0.090196 0.101961 0.207843
0.125490 0.141176 0.258824
0.125490 0.141176 0.258824
0.031373 0.227451 0.419608
0.031373 0.227451 0.419608
0.031373 0.227451 0.419608
0.058824 0.113725 0.666667
0.058824 0.113725 0.666667
0.058824 0.113725 0.666667
0.133333 0.250980 0.776471
0.133333 0.250980 0.776471
0.133333 0.250980 0.776471
0.047059 0.000000 0.905882
0.035294 0.000000 0.968627
0.125490 0.196078 0.062745
0.125490 0.196078 0.062745
0.125490 0.196078 0.062745
0.109804 0.294118 0.211765
0.109804 0.294118 0.211765
0.031373 0.227451 0.419608
0.031373 0.227451 0.419608
0.031373 0.227451 0.419608
0.070588 0.305882 0.513725
0.070588 0.305882 0.513725
0.070588 0.305882 0.513725
0.133333 0.250980 0.776471
0.133333 0.250980 0.776471
0.133333 0.250980 0.776471
0.133333 0.250980 0.776471
0.133333 0.250980 0.776471
0.133333 0.250980 0.776471
0.160784 0.250980 0.070588
0.160784 0.250980 0.070588
0.109804 0.294118 0.211765
0.109804 0.294118 0.211765
0.109804 0.294118 0.211765
0.125490 0.352941 0.247059
0.031373 0.227451 0.419608
0.070588 0.305882 0.513725
0.070588 0.305882 0.513725
0.070588 0.305882 0.513725
0.015686 0.380392 0.596078
0.050980 0.423529 0.647059
0.133333 0.250980 0.776471
0.133333 0.250980 0.776471
0.133333 0.250980 0.776471
0.133333 0.250980 0.776471
0.007843 0.498039 1.000000
0.196078 0.305882 0.074510
0.196078 0.305882 0.074510
0.109804 0.294118 0.211765
0.125490 0.352941 0.247059
0.125490 0.352941 0.247059
0.125490 0.352941 0.247059
0.141176 0.407843 0.282353
0.070588 0.305882 0.513725
0.070588 0.305882 0.513725
0.015686 0.380392 0.596078
0.015686 0.380392 0.596078
0.050980 0.423529 0.647059
0.050980 0.423529 0.647059
0.133333 0.250980 0.776471
0.227451 0.396078 0.886275
0.007843 0.498039 1.000000
0.007843 0.498039 1.000000
0.188235 0.533333 0.031373
0.188235 0.533333 0.031373
0.125490 0.352941 0.247059
0.125490 0.352941 0.247059
0.141176 0.407843 0.282353
0.141176 0.407843 0.282353
0.152941 0.466667 0.317647
0.141176 0.466667 0.537255
0.141176 0.466667 0.537255
0.015686 0.380392 0.596078
0.050980 0.423529 0.647059
0.050980 0.423529 0.647059
0.094118 0.474510 0.698039
0.094118 0.474510 0.698039
0.007843 0.498039 1.000000
0.007843 0.498039 1.000000
0.007843 0.498039 1.000000
0.188235 0.533333 0.031373
0.188235 0.533333 0.031373
0.188235 0.533333 0.031373
0.141176 0.407843 0.282353
0.152941 0.466667 0.317647
0.152941 0.466667 0.317647
0.160784 0.521569 0.356863
0.160784 0.521569 0.356863
0.141176 0.466667 0.537255
0.141176 0.466667 0.537255
0.050980 0.423529 0.647059
0.094118 0.474510 0.698039
0.094118 0.474510 0.698039
0.141176 0.517647 0.749020
0.007843 0.498039 1.000000
0.007843 0.498039 1.000000
0.007843 0.498039 1.000000
0.188235 0.533333 0.031373
0.188235 0.533333 0.031373
0.188235 0.533333 0.031373
0.152941 0.466667 0.317647
0.152941 0.466667 0.317647
0.160784 0.521569 0.356863
0.160784 0.521569 0.356863
0.168627 0.576471 0.388235
0.141176 0.466667 0.537255
0.149020 0.501961 0.584314
0.156863 0.541176 0.631373
0.094118 0.474510 0.698039
0.141176 0.517647 0.749020
0.141176 0.517647 0.749020
0.007843 0.498039 1.000000
0.007843 0.498039 1.000000
0.007843 0.498039 1.000000
0.188235 0.533333 0.031373
0.188235 0.533333 0.031373
0.188235 0.533333 0.031373
0.188235 0.533333 0.031373
0.160784 0.521569 0.356863
0.168627 0.576471 0.388235
0.168627 0.576471 0.388235
0.176471 0.635294 0.423529
0.176471 0.635294 0.423529
0.156863 0.541176 0.631373
0.156863 0.541176 0.631373
0.156863 0.541176 0.631373
0.141176 0.517647 0.749020
0.141176 0.517647 0.749020
0.192157 0.556863 0.800000
0.007843 0.498039 1.000000
0.007843 0.498039 1.000000
0.188235 0.533333 0.031373
0.239216 0.600000 0.054902
0.239216 0.600000 0.054902
0.239216 0.600000 0.054902
0.168627 0.576471 0.388235
0.176471 0.635294 0.423529
0.176471 0.635294 0.423529
0.176471 0.635294 0.423529
0.176471 0.635294 0.423529
0.176471 0.635294 0.423529
0.156863 0.541176 0.631373
0.188235 0.564706 0.650980
0.141176 0.517647 0.749020
0.192157 0.556863 0.800000
0.192157 0.556863 0.800000
0.007843 0.498039 1.000000
0.007843 0.498039 1.000000
0.270588 0.705882 0.000000
0.270588 0.705882 0.000000
0.239216 0.600000 0.054902
0.239216 0.600000 0.054902
0.176471 0.635294 0.423529
0.176471 0.635294 0.423529
0.176471 0.635294 0.423529
0.176471 0.635294 0.423529
0.176471 0.635294 0.423529
0.176471 0.635294 0.423529
0.188235 0.564706 0.650980
0.188235 0.564706 0.650980
0.231373 0.596078 0.694118
0.192157 0.556863 0.800000
0.247059 0.607843 0.850980
0.035294 0.968627 1.000000
0.035294 0.968627 1.000000
0.270588 0.705882 0.000000
0.270588 0.705882 0.000000
0.270588 0.705882 0.000000
0.294118 0.666667 0.082353
0.176471 0.635294 0.423529
0.176471 0.635294 0.423529
0.176471 0.635294 0.423529
0.176471 0.635294 0.423529
0.176471 0.635294 0.423529
0.176471 0.635294 0.423529
0.188235 0.564706 0.650980
0.231373 0.596078 0.694118
0.266667 0.627451 0.713725
0.035294 0.968627 1.000000
0.035294 0.968627 1.000000
0.035294 0.968627 1.000000
0.035294 0.968627 1.000000
0.270588 0.705882 0.000000
0.270588 0.705882 0.000000
0.270588 0.705882 0.000000
0.376471 0.882353 0.164706
0.176471 0.635294 0.423529
0.176471 0.635294 0.423529
0.176471 0.635294 0.423529
0.176471 0.635294 0.423529
0.176471 0.635294 0.423529
0.176471 0.635294 0.423529
0.176471 0.635294 0.423529
0.266667 0.627451 0.713725
0.035294 0.968627 1.000000
0.035294 0.968627 1.000000
0.035294 0.968627 1.000000
0.035294 0.968627 1.000000
0.035294 0.968627 1.000000
0.270588 0.705882 0.000000
0.270588 0.705882 0.000000
0.376471 0.882353 0.164706
0.376471 0.882353 0.164706
0.376471 0.882353 0.164706
0.176471 0.635294 0.423529
0.176471 0.635294 0.423529
0.176471 0.635294 0.423529
0.176471 0.635294 0.423529
0.176471 0.635294 0.423529
0.125490 0.988235 0.988235
0.125490 0.988235 0.988235
0.125490 0.988235 0.988235
0.035294 0.968627 1.000000
0.035294 0.968627 1.000000
0.035294 0.968627 1.000000
0.035294 0.968627 1.000000
0.270588 0.705882 0.000000
0.376471 0.882353 0.164706
0.376471 0.882353 0.164706
0.376471 0.882353 0.164706
0.376471 0.882353 0.164706
0.376471 0.882353 0.164706
0.176471 0.635294 0.423529
0.176471 0.635294 0.423529
0.176471 0.635294 0.423529
0.176471 0.635294 0.423529
0.125490 0.988235 0.988235
0.125490 0.988235 0.988235
0.125490 0.988235 0.988235
0.125490 0.988235 0.988235
0.035294 0.968627 1.000000
0.035294 0.968627 1.000000
0.035294 0.968627 1.000000
0.000000 0.000000 0.000000
0.000000 0.000000 0.062745
0.000000 0.000000 0.109804
0.090196 0.101961 0.207843
0.090196 0.101961 0.207843
0.090196 0.101961 0.207843
0.007843 0.000000 0.498039
0.007843 0.000000 0.498039
0.007843 0.000000 0.498039
0.000000 0.007843 0.564706
0.000000 0.007843 0.564706
0.058824 0.113725 0.666667
0.000000 0.000000 0.796078
0.047059 0.000000 0.905882
0.047059 0.000000 0.905882
0.047059 0.000000 0.905882
0.035294 0.000000 0.968627
0.086275 0.137255 0.047059
0.086275 0.137255 0.047059
0.125490 0.125490 0.125490
0.090196 0.101961 0.207843
0.090196 0.101961 0.207843
0.125490 0.141176 0.258824
0.125490 0.141176 0.258824
0.007843 0.000000 0.498039
0.007843 0.000000 0.498039
0.000000 0.007843 0.564706
0.058824 0.113725 0.666667
0.058824 0.113725 0.666667
0.058824 0.113725 0.666667
0.047059 0.000000 0.905882
0.047059 0.000000 0.905882
0.047059 0.000000 0.905882
0.035294 0.000000 0.968627
0.086275 0.137255 0.047059
0.086275 0.137255 0.047059
0.125490 0.125490 0.125490
0.090196 0.101961 0.207843
0.125490 0.141176 0.258824
0.125490 0.141176 0.258824
0.168627 0.188235 0.313725
0.031373 0.227451 0.419608
0.031373 0.227451 0.419608
0.058824 0.113725 0.666667
0.058824 0.113725 0.666667
0.058824 0.113725 0.666667
0.058824 0.113725 0.666667
0.133333 0.250980 0.776471
0.047059 0.000000 0.905882
0.047059 0.000000 0.905882
0.035294 0.000000 0.968627
0.125490 0.196078 0.062745
0.125490 0.196078 0.062745
0.125490 0.125490 0.125490
0.192157 0.192157 0.192157
0.125490 0.141176 0.258824
0.168627 0.188235 0.313725
0.168627 0.188235 0.313725
0.031373 0.227451 0.419608
0.031373 0.227451 0.419608
0.070588 0.305882 0.513725
0.058824 0.113725 0.666667
0.058824 0.113725 0.666667
0.133333 0.250980 0.776471
0.133333 0.250980 0.776471
0.133333 0.250980 0.776471
0.133333 0.250980 0.776471
0.035294 0.000000 0.968627
0.160784 0.250980 0.070588
0.160784 0.250980 0.070588
0.160784 0.250980 0.070588
0.109804 0.294118 0.211765
0.109804 0.294118 0.211765
0.168627 0.188235 0.313725
0.215686 0.235294 0.364706
0.031373 0.227451 0.419608
0.070588 0.305882 0.513725
0.070588 0.305882 0.513725
0.070588 0.305882 0.513725
0.133333 0.250980 0.776471
0.133333 0.250980 0.776471
0.133333 0.250980 0.776471
0.133333 0.250980 0.776471
0.133333 0.250980 0.776471
0.227451 0.396078 0.886275
0.160784 0.250980 0.070588
0.160784 0.250980 0.070588
0.160784 0.250980 0.070588
0.109804 0.294118 0.211765
0.109804 0.294118 0.211765
0.125490 0.352941 0.247059
0.215686 0.235294 0.364706
0.070588 0.305882 0.513725
0.070588 0.305882 0.513725
0.070588 0.305882 0.513725
0.121569 0.392157 0.607843
0.133333 0.250980 0.776471
0.133333 0.250980 0.776471
0.133333 0.250980 0.776471
0.133333 0.250980 0.776471
0.227451 0.396078 0.886275
0.227451 0.396078 0.886275
0.196078 0.305882 0.074510
0.196078 0.305882 0.074510
0.196078 0.305882 0.074510
0.125490 0.352941 0.247059
0.125490 0.352941 0.247059
0.141176 0.407843 0.282353
0.141176 0.407843 0.282353
0.070588 0.305882 0.513725
0.070588 0.305882 0.513725
0.121569 0.392157 0.607843
0.121569 0.392157 0.607843
0.121569 0.392157 0.607843
0.094118 0.474510 0.698039
0.133333 0.250980 0.776471
0.227451 0.396078 0.886275
0.227451 0.396078 0.886275
0.227451 0.396078 0.886275
0.188235 0.533333 0.031373
0.188235 0.533333 0.031373
0.231373 0.364706 0.070588
0.125490 0.352941 0.247059
0.141176 0.407843 0.282353
0.141176 0.407843 0.282353
0.152941 0.466667 0.317647
0.141176 0.466667 0.537255
0.141176 0.466667 0.537255
0.141176 0.466667 0.537255
0.121569 0.392157 0.607843
0.094118 0.474510 0.698039
0.094118 0.474510 0.698039
0.141176 0.517647 0.749020
0.227451 0.396078 0.886275
0.227451 0.396078 0.886275
0.007843 0.498039 1.000000
0.188235 0.533333 0.031373
0.188235 0.533333 0.031373
0.188235 0.533333 0.031373
0.141176 0.407843 0.282353
0.152941 0.466667 0.317647
0.152941 0.466667 0.317647
0.160784 0.521569 0.356863
0.160784 0.521569 0.356863
0.141176 0.466667 0.537255
0.149020 0.501961 0.584314
0.149020 0.501961 0.584314
0.094118 0.474510 0.698039
0.141176 0.517647 0.749020
0.141176 0.517647 0.749020
0.192157 0.556863 0.800000
0.007843 0.498039 1.000000
0.007843 0.498039 1.000000
0.188235 0.533333 0.031373
0.188235 0.533333 0.031373
0.188235 0.533333 0.031373
0.152941 0.466667 0.317647
0.152941 0.466667 0.317647
0.160784 0.521569 0.356863
0.168627 0.576471 0.388235
0.168627 0.576471 0.388235
0.141176 0.466667 0.537255
0.149020 0.501961 0.584314
0.156863 0.541176 0.631373
0.156863 0.541176 0.631373
0.141176 0.517647 0.749020
0.192157 0.556863 0.800000
0.192157 0.556863 0.800000
0.007843 0.498039 1.000000
0.007843 0.498039 1.000000
0.188235 0.533333 0.031373
0.188235 0.533333 0.031373
0.239216 0.600000 0.054902
0.239216 0.600000 0.054902
0.160784 0.521569 0.356863
0.168627 0.576471 0.388235
0.168627 0.576471 0.388235
0.176471 0.635294 0.423529
0.176471 0.635294 0.423529
0.156863 0.541176 0.631373
0.156863 0.541176 0.631373
0.188235 0.564706 0.650980
0.141176 0.517647 0.749020
0.192157 0.556863 0.800000
0.192157 0.556863 0.800000
0.247059 0.607843 0.850980
0.007843 0.498039 1.000000
0.270588 0.705882 0.000000
0.239216 0.600000 0.054902
0.239216 0.600000 0.054902
0.239216 0.600000 0.054902
0.168627 0.576471 0.388235
0.176471 0.635294 0.423529
0.176471 0.635294 0.423529
0.176471 0.635294 0.423529
0.176471 0.635294 0.423529
0.176471 0.635294 0.423529
0.188235 0.564706 0.650980
0.231373 0.596078 0.694118
0.231373 0.596078 0.694118
0.192157 0.556863 0.800000
0.247059 0.607843 0.850980
0.247059 0.607843 0.850980
0.247059 0.607843 0.850980
0.270588 0.705882 0.000000
0.270588 0.705882 0.000000
0.294118 0.666667 0.082353
0.294118 0.666667 0.082353
0.176471 0.635294 0.423529
0.176471 0.635294 0.423529
0.176471 0.635294 0.423529
0.176471 0.635294 0.423529
0.176471 0.635294 0.423529
0.176471 0.635294 0.423529
0.188235 0.564706 0.650980
0.231373 0.596078 0.694118
0.266667 0.627451 0.713725
0.247059 0.607843 0.850980
0.247059 0.607843 0.850980
0.247059 0.607843 0.850980
0.313725 0.666667 0.901961
0.270588 0.705882 0.000000
0.270588 0.705882 0.000000
0.270588 0.705882 0.000000
0.294118 0.666667 0.082353
0.176471 0.635294 0.423529
0.176471 0.635294 0.423529
0.176471 0.635294 0.423529
0.176471 0.635294 0.423529
0.176471 0.635294 0.423529
0.176471 0.635294 0.423529
0.266667 0.627451 0.713725
0.266667 0.627451 0.713725
0.266667 0.627451 0.713725
0.247059 0.607843 0.850980
0.125490 0.988235 0.988235
0.125490 0.988235 0.988235
0.125490 0.988235 0.988235
0.270588 0.705882 0.000000
0.270588 0.705882 0.000000
0.270588 0.705882 0.000000
0.376471 0.882353 0.164706
0.376471 0.882353 0.164706
0.176471 0.635294 0.423529
0.176471 0.635294 0.423529
0.176471 0.635294 0.423529
0.176471 0.635294 0.423529
0.176471 0.635294 0.423529
0.266667 0.627451 0.713725
0.266667 0.627451 0.713725
0.125490 0.988235 0.988235
0.125490 0.988235 0.988235
0.125490 0.988235 0.988235
0.125490 0.988235 0.988235
0.125490 0.988235 0.988235
0.270588 0.705882 0.000000
0.376471 0.882353 0.164706
0.376471 0.882353 0.164706
0.376471 0.882353 0.164706
0.376471 0.882353 0.164706
0.376471 0.882353 0.164706
0.176471 0.635294 0.423529
0.176471 0.635294 0.423529
0.176471 0.635294 0.423529
0.176471 0.635294 0.423529
0.266667 0.627451 0.713725
0.125490 0.988235 0.988235
0.125490 0.988235 0.988235
0.125490 0.988235 0.988235
0.125490 0.988235 0.988235
0.125490 0.988235 0.988235
0.125490 0.988235 0.988235
0.376471 0.882353 0.164706
0.376471 0.882353 0.164706
0.376471 0.882353 0.164706
0.376471 0.882353 0.164706
0.376471 0.882353 0.164706
0.376471 0.882353 0.164706
0.376471 0.882353 0.164706
0.176471 0.635294 0.423529
0.176471 0.635294 0.423529
0.176471 0.635294 0.423529
0.125490 0.988235 0.988235
0.125490 0.988235 0.988235
0.125490 0.988235 0.988235
0.125490 0.988235 0.988235
0.125490 0.988235 0.988235
0.125490 0.988235 0.988235
0.125490 0.988235 0.988235
0.313725 0.000000 0.000000
0.313725 0.000000 0.000000
0.125490 0.125490 0.125490
0.090196 0.101961 0.207843
0.090196 0.101961 0.207843
0.125490 0.141176 0.258824
0.125490 0.141176 0.258824
0.258824 0.000000 0.564706
0.258824 0.000000 0.564706
0.258824 0.000000 0.564706
0.258824 0.000000 0.564706
0.258824 0.000000 0.564706
0.058824 0.113725 0.666667
0.047059 0.000000 0.905882
0.047059 0.000000 0.905882
0.047059 0.000000 0.905882
0.035294 0.000000 0.968627
0.274510 0.121569 0.054902
0.274510 0.121569 0.054902
0.125490 0.125490 0.125490
