materials/rfire.cube
TITLE "ACT to LUT"
LUT_3D_SIZE 5
0.000000 0.000000 0.000000
0.003922 0.094118 0.192157
0.007843 0.000000 0.498039
0.000000 0.000000 0.796078
0.000000 0.000000 1.000000
0.086275 0.137255 0.047059
0.109804 0.294118 0.211765
0.031373 0.227451 0.419608
0.133333 0.250980 0.776471
0.000000 0.000000 1.000000
0.188235 0.533333 0.031373
0.141176 0.407843 0.282353
0.141176 0.466667 0.537255
0.094118 0.474510 0.698039
0.007843 0.498039 1.000000
0.270588 0.705882 0.000000
0.176471 0.635294 0.423529
0.176471 0.635294 0.423529
0.141176 0.517647 0.749020
0.035294 0.968627 1.000000
0.270588 0.705882 0.000000
0.376471 0.882353 0.164706
0.176471 0.635294 0.423529
0.035294 0.968627 1.000000
0.035294 0.968627 1.000000
0.313725 0.000000 0.000000
0.125490 0.141176 0.258824
0.258824 0.000000 0.564706
0.258824 0.000000 0.564706
0.035294 0.000000 0.968627
0.196078 0.305882 0.074510
0.254902 0.254902 0.254902
0.266667 0.286275 0.415686
0.133333 0.250980 0.776471
0.227451 0.396078 0.886275
0.188235 0.533333 0.031373
0.345098 0.431373 0.223529
0.305882 0.494118 0.541176
0.278431 0.498039 0.725490
0.345098 0.568627 1.000000
0.270588 0.705882 0.000000
0.352941 0.733333 0.113725
0.176471 0.635294 0.423529
0.266667 0.627451 0.713725
0.376471 0.725490 0.960784
0.376471 0.882353 0.164706
0.376471 0.882353 0.164706
0.494118 1.000000 0.368627
0.250980 0.988235 0.988235
0.250980 0.988235 0.988235
0.533333 0.000000 0.000000
0.498039 0.082353 0.082353
0.258824 0.000000 0.564706
0.752941 0.000000 0.725490
0.752941 0.000000 0.725490
0.427451 0.215686 0.125490
0.501961 0.250980 0.250980
0.439216 0.282353 0.627451
0.482353 0.349020 0.690196
0.529412 0.423529 0.749020
0.517647 0.517647 0.000000
0.478431 0.513725 0.203922
0.509804 0.509804 0.509804
0.443137 0.537255 0.709804
0.345098 0.568627 1.000000
0.454902 0.705882 0.000000
0.549020 0.686275 0.172549
0.568627 0.678431 0.615686
0.505882 0.772549 0.780392
0.439216 0.749020 0.976471
0.466667 0.862745 0.188235
0.529412 0.929412 0.231373
0.494118 1.000000 0.368627
0.486275 0.988235 0.972549
0.486275 0.988235 0.972549
0.733333 0.000000 0.000000
0.733333 0.000000 0.000000
0.945098 0.000000 0.407843
0.752941 0.000000 0.725490
0.752941 0.000000 0.725490
0.992157 0.278431 0.000000
0.666667 0.419608 0.266667
0.956863 0.329412 0.329412
0.752941 0.000000 0.725490
0.592157 0.505882 0.819608
0.635294 0.576471 0.000000
0.709804 0.521569 0.341176
0.768627 0.592157 0.419608
0.592157 0.505882 0.819608
0.592157 0.505882 0.819608
0.815686 0.760784 0.000000
0.603922 0.749020 0.149020
0.839216 0.682353 0.501961
0.705882 0.705882 0.705882
0.796078 0.796078 0.796078
0.815686 0.760784 0.000000
0.584314 1.000000 0.243137
1.000000 0.941176 0.552941
0.796078 0.796078 0.796078
0.721569 0.988235 0.988235
0.929412 0.000000 0.000000
0.945098 0.000000 0.407843
0.945098 0.000000 0.407843
0.752941 0.000000 0.725490
0.752941 0.000000 0.725490
0.992157 0.278431 0.000000
0.956863 0.329412 0.329412
0.956863 0.329412 0.329412
0.752941 0.000000 0.725490
0.752941 0.000000 0.725490
0.988235 0.505882 0.000000
0.956863 0.329412 0.329412
0.968627 0.494118 0.494118
0.984314 0.670588 0.670588
0.984314 0.670588 0.670588
0.988235 0.737255 0.000000
1.000000 0.921569 0.278431
0.960784 0.729412 0.584314
0.941176 0.772549 0.694118
1.000000 0.854902 0.854902
1.000000 0.960784 0.000000
1.000000 0.921569 0.278431
1.000000 0.941176 0.552941
1.000000 0.988235 0.756863
1.000000 1.000000 1.000000
